!!!OTL: Der Schaefersohn.
!!!OTL-incipit: ES TRIEB EIN SCHAEFER WOHL UEBER DIE BRUECK
!!!ARE: Europa, Mitteleuropa, Deutschland, Niederrhein
!!!SCT: Z1086
!!!YEM: Copyright 1995, estate of Helmut Schaffrath.
**kern	**text
*ICvox	*
*M6/8	*
*k[b-e-]	*
*g:	*
!LO:TX:a:t=Vorſänger.	!
!LO:TX:a:t=Vom Niederrhein.	!
{8d	Es
=1	=1
4g	trieb
8g	ein
8g	Schäfer
8a	.
8b-/	wohl
=2	=2
8a	ü-
8a	-ber
8g	die
4f#	Brück',
8r}	.
=3	=3
!LO:TX:a:t=Alle.	!
{8f#	e-
8a	-de-
8cc	-le,
8cc	e-
8b-	-de-
8cc	-le
=4	=4
(>4b-/	Ro-
8a)	.
4g}	-ſe!
!LO:TX:a:t=Vorſänger.	!
{8g	er
=5	=5
4cc	hat
8g	'nen
4g	Geld-
8f	-ſack
=6	=6
4f	auf
8e-X	dem
4.d}	Rück.
=7	=7
!LO:TX:a:t=Alle.	!
{8e-L	Berg
8dJ	.
8c	und
4.d	Thal,
=8	=8
8e-L	kal-
8dJ	.
8c	-ter
4.d}	Schnee,
=9	=9
{4g	Herʒ-
8f#	-lieb
8g	ſcheiden
8g	.
8d	und
=10	=10
4e-	das
8d	thut
4g};	weh!
==	==
!!!AGN: Romanze, Ballade
!!!ONB: ESAC (Essen Associative Code) Database: ZUCCAL
!!!AMT: compound duple
!!!AIN: vox
!!!EED: Helmut Schaffrath
!!!EEV: 1.0
!!!GTL: II. Gau- Leuschen.
!!!URL-scan: https://www.digitale-sammlungen.de/de/view/bsb11160573?page=184
!!!ENC: Anna Maria Matuszewska
!!!EEV: 2025/02/04
*-	*-
